!!!SOCIAL_FUNCTION:	songs with hunting dance
!!!PDT:	1956
!!!OTL: No_41_Cow_Creek_Hunting_Dance_Song_(h).krn
!!!LANG: Non-Tone
!!!LING_GROUP: Muskogean
!!!REG: Florida
**kern
*staff1
=1-
*clefF4
*k[f#c#g#d#]
*M3/4
2r
8.E\L
16E\Jk
=2
2E\
4B\
=3
4..B\
16A\
8.G#\L
16E\Jk
=4
2G#\
8.B\L
16G#\Jk
=5
2G#\
4B\
=6!|:
*M2/4
8B\L
[8A\J
8A\L]
8G#\J
=7||
*M3/4
8B\L
8A\J
8G#\L
8E\J
8.G#\L
16E\Jk
=8||
*M2/4
2E\
=9
8.B\L
16G#\Jk
4G#\
=10
8E\L
8E\J
4E\
=11
2E\
=12
8G#\L
8E\J
4E\
=13
2E\
=14||
*M3/4
2E\
4B\
=15||
*M2/4
8B\L
[8A\J
4A\]
=16||
*M3/4
8B\L
8A\J
8G#\L
8E\J
8.G#\L
16E\Jk
=17||
*M2/4
2E\
=18
8.B\L
16G#\Jk
4G#\
=19
8E\L
8E\J
4E\
=20
2E\
=21
8.G#\L
16E\Jk
4E\
=22
2E\
=23||
*M3/4
2E\
4B\
==:|!
*-
